X:1
T: Mrs. Monroe's Jig
C:
R:Jig
Q:180
K:G
M:6/8
L:1/16
D2|G4G2 A2G2A2|B2c2d2 e2f2g2|G4G2 A2G2A2|B2G2E2 E4D2|
G4G2 A2G2A2|B2c2d2 e2f2g2|d2c2B2 A2G2A2|B2G2G2 G4|
|:f2|g2f2g2 e2f2g2|f4d2 d2e2f2|g2f2g2 a2g2a2|b2g2e2 e4f2|
g2f2g2 a2g2a2|b2g2e2 e2f2g2|d2c2B2 c2B2A2|B2G2G2 G4:|
D2|G4G2 A2G2A2|B2c2d2 e2f2g2|G4G2 A2G2A2|B2G2E2 E4D2|
G4G2 A2G2A2|B2c2d2 e2f2g2|d2c2B2 A2G2A2|B2G2G2 G4||
